X: 12
T:Rights of Man
% Nottingham Music Database
S:Fiddler's Fakebook, via PR
M:4/4
L:1/4
K:Em
G/2A/2|(3"Em"B/2c/2B/2(3A/2B/2A/2 (3G/2A/2G/2(3F/2G/2F/2|E/2F/2G/2A/2 Be/2f/2|
"Em"g/2f/2e/2d/2 e/2d/2c/2B/2|"Am"c/2B/2A/2G/2 "B"FG/2A/2|\
(3"Em"B/2c/2B/2(3A/2B/2A/2 (3G/2A/2G/2(3F/2G/2F/2|
"Em"E/2F/2G/2A/2 Be/2f/2|"Em"g/2f/2e/2d/2 "B"B/2g/2(3f/2g/2f/2|"Em"eB E::
g/2a/2|"Em"b/2g/2b/2g/2 e/2f/2g/2a/2|b/2a/2g/2f/2 e/2g/2f/2e/2|\
"D"d/2^c/2d/2e/2 f/2e/2f/2g/2|a/2f/2d/2f/2 a(g/2f/2)|
"Em"e/2B/2e/2g/2 "D"f/2d/2f/2a/2|"Em"g/2f/2g/2a/2 b/2g/2e/2f/2|\
"Em"g/2f/2e/2d/2 "B"B/2g/2(3f/2g/2f/2|"Em"eB E:|


